assets/images/ico_email.svg

<svg width="27" height="20" viewBox="0 0 27 20" fill="none" xmlns="http://www.w3.org/2000/svg">
<path d="M21.8333 1H5.16667C2.86833 1 1 2.83518 1 5.09091V14.9091C1 17.1648 2.86833 19 5.16667 19H21.8333C24.1317 19 26 17.1648 26 14.9091V5.09091C26 2.83518 24.1317 1 21.8333 1ZM24.3333 14.9091C24.3333 15.2871 24.2392 15.6414 24.0825 15.9605L17.7458 9.74063L24.0608 4.05673C24.0675 4.05018 24.0717 4.03955 24.0783 4.03464C24.235 4.35618 24.3333 4.71127 24.3333 5.09091V14.9091ZM21.8333 2.63636C22.2175 2.63636 22.5792 2.72882 22.9025 2.88182L15.3925 9.64082C14.3658 10.5662 12.6308 10.5662 11.6042 9.64082L4.09333 2.88182C4.42333 2.72882 4.77833 2.63636 5.1625 2.63636H21.8333ZM2.66667 5.09091C2.66667 4.71127 2.7625 4.35618 2.92083 4.03464C2.9275 4.04282 2.93333 4.05182 2.93833 4.05673L9.25333 9.74063L2.91667 15.9605C2.76 15.6405 2.66583 15.2871 2.66583 14.9091L2.66667 5.09091ZM5.16667 17.3636C4.78083 17.3636 4.42083 17.2712 4.09583 17.1174L10.4825 10.8468C11.3142 11.5955 12.4083 11.9702 13.5 11.9702C14.5917 11.9702 15.6858 11.5955 16.5175 10.8468L22.9042 17.1174C22.5767 17.2712 22.2175 17.3636 21.8333 17.3636H5.16667Z" fill="#ABB2BA" stroke="#ABB2BA" stroke-width="0.3"/>
</svg>

<svg width="27" height="20" fill="none" xmlns="http://www.w3.org/2000/svg"><path d="M21.833 1H5.167C2.868 1 1 2.835 1 5.09v9.82C1 17.164 2.868 19 5.167 19h16.666C24.132 19 26 17.165 26 14.91V5.09C26 2.836 24.132 1 21.833 1zm2.5 13.91c0 .377-.094.731-.25 1.05l-6.337-6.22 6.315-5.683c.006-.007.01-.017.017-.022.157.321.255.676.255 1.056v9.818zm-2.5-12.274c.385 0 .746.093 1.07.246l-7.51 6.759c-1.027.925-2.762.925-3.789 0l-7.51-6.76c.33-.152.684-.245 1.068-.245h16.671zM2.667 5.091c0-.38.096-.735.254-1.056l.017.022L9.253 9.74l-6.336 6.22a2.379 2.379 0 01-.251-1.052V5.091zm2.5 12.273c-.386 0-.746-.093-1.071-.247l6.386-6.27c.832.748 1.926 1.123 3.018 1.123 1.092 0 2.186-.375 3.017-1.123l6.387 6.27a2.505 2.505 0 01-1.07.247H5.166z" fill="#ABB2BA" stroke="#ABB2BA" stroke-width=".3"/></svg>
